packages/dnb-ui-lib/assets/icons/phone_medium.svg

<svg width="24" height="24" viewBox="0 0 24 24" fill="none" xmlns="http://www.w3.org/2000/svg">
<path d="M10.5 3.75C10.0858 3.75 9.75 4.08579 9.75 4.5C9.75 4.91421 10.0858 5.25 10.5 5.25V3.75ZM13.5 5.25C13.9142 5.25 14.25 4.91421 14.25 4.5C14.25 4.08579 13.9142 3.75 13.5 3.75V5.25ZM6.5 1.75H17.5V0.25H6.5V1.75ZM17.75 2V22H19.25V2H17.75ZM17.5 22.25H6.5V23.75H17.5V22.25ZM6.25 22V2H4.75V22H6.25ZM10.5 5.25H13.5V3.75H10.5V5.25ZM6.5 22.25C6.36193 22.25 6.25 22.1381 6.25 22H4.75C4.75 22.9665 5.5335 23.75 6.5 23.75V22.25ZM17.75 22C17.75 22.1381 17.6381 22.25 17.5 22.25V23.75C18.4665 23.75 19.25 22.9665 19.25 22H17.75ZM17.5 1.75C17.6381 1.75 17.75 1.86193 17.75 2H19.25C19.25 1.0335 18.4665 0.25 17.5 0.25V1.75ZM6.5 0.25C5.5335 0.25 4.75 1.0335 4.75 2H6.25C6.25 1.86193 6.36193 1.75 6.5 1.75V0.25ZM12.5 19C12.5 19.2761 12.2761 19.5 12 19.5V21C13.1046 21 14 20.1046 14 19H12.5ZM12 19.5C11.7239 19.5 11.5 19.2761 11.5 19H10C10 20.1046 10.8954 21 12 21V19.5ZM11.5 19C11.5 18.7239 11.7239 18.5 12 18.5V17C10.8954 17 10 17.8954 10 19H11.5ZM12 18.5C12.2761 18.5 12.5 18.7239 12.5 19H14C14 17.8954 13.1046 17 12 17V18.5Z" fill="black"/>
</svg>

<svg width="24" height="24" viewBox="0 0 24 24" fill="none" xmlns="http://www.w3.org/2000/svg"><path d="M10.5 3.75a.75.75 0 000 1.5v-1.5zm3 1.5a.75.75 0 000-1.5v1.5zm-7-3.5h11V.25h-11v1.5zM17.75 2v20h1.5V2h-1.5zm-.25 20.25h-11v1.5h11v-1.5zM6.25 22V2h-1.5v20h1.5zM10.5 5.25h3v-1.5h-3v1.5zm-4 17a.25.25 0 01-.25-.25h-1.5c0 .966.784 1.75 1.75 1.75v-1.5zM17.75 22a.25.25 0 01-.25.25v1.5A1.75 1.75 0 0019.25 22h-1.5zM17.5 1.75a.25.25 0 01.25.25h1.5A1.75 1.75 0 0017.5.25v1.5zM6.5.25A1.75 1.75 0 004.75 2h1.5a.25.25 0 01.25-.25V.25zm6 18.75a.5.5 0 01-.5.5V21a2 2 0 002-2h-1.5zm-.5.5a.5.5 0 01-.5-.5H10a2 2 0 002 2v-1.5zm-.5-.5a.5.5 0 01.5-.5V17a2 2 0 00-2 2h1.5zm.5-.5a.5.5 0 01.5.5H14a2 2 0 00-2-2v1.5z" fill="#000"/></svg>
